austria/municipalities/41742.svg

<?xml version="1.0" encoding="UTF-8"?>
<!DOCTYPE svg PUBLIC "-//W3C//DTD SVG 1.1//EN" "http://www.w3.org/Graphics/SVG/1.1/DTD/svg11.dtd">
<svg xmlns="http://www.w3.org/2000/svg" version="1.1" width="166px" height="207px" style="shape-rendering:geometricPrecision; text-rendering:geometricPrecision; image-rendering:optimizeQuality; fill-rule:evenodd; clip-rule:evenodd" xmlns:xlink="http://www.w3.org/1999/xlink">
<g><path style="opacity:1" fill="#000000" d="M -0.5,-0.5 C 54.8333,-0.5 110.167,-0.5 165.5,-0.5C 165.5,44.5 165.5,89.5 165.5,134.5C 161.239,157.511 149.906,176.344 131.5,191C 120.516,198.576 108.516,203.743 95.5,206.5C 86.8333,206.5 78.1667,206.5 69.5,206.5C 30.0336,197.035 6.70027,172.368 -0.5,132.5C -0.5,88.1667 -0.5,43.8333 -0.5,-0.5 Z"/></g>
<g><path style="opacity:1" fill="#00612a" d="M 3.5,3.5 C 17.5448,5.92079 24.8781,14.2541 25.5,28.5C 41.6103,27.9503 50.6103,35.617 52.5,51.5C 66.5402,50.011 75.8735,55.8444 80.5,69C 54.8355,69.5 29.1688,69.6666 3.5,69.5C 3.5,47.5 3.5,25.5 3.5,3.5 Z"/></g>
<g><path style="opacity:1" fill="#fefffe" d="M 13.5,4.5 C 59.3315,3.33515 105.332,3.16848 151.5,4C 142.559,8.7868 137.892,16.2868 137.5,26.5C 122.066,26.6001 113.066,34.2668 110.5,49.5C 96.2031,48.6574 87.0364,54.9908 83,68.5C 79.6274,58.459 72.794,52.2924 62.5,50C 59.854,49.5026 57.1873,49.3359 54.5,49.5C 51.9342,34.2668 42.9342,26.6001 27.5,26.5C 27.3376,16.1505 22.671,8.81717 13.5,4.5 Z"/></g>
<g><path style="opacity:1" fill="#00612a" d="M 157.5,3.5 C 158.833,3.5 160.167,3.5 161.5,3.5C 161.5,25.5 161.5,47.5 161.5,69.5C 135.825,69.8331 110.158,69.4998 84.5,68.5C 89.4259,55.6991 98.7592,50.0324 112.5,51.5C 114.377,35.6313 123.377,27.9647 139.5,28.5C 139.895,16.0166 145.895,7.6833 157.5,3.5 Z"/></g>
<g><path style="opacity:1" fill="#fea700" d="M 3.5,71.5 C 56.1667,71.5 108.833,71.5 161.5,71.5C 161.5,73.8333 161.5,76.1667 161.5,78.5C 108.833,78.5 56.1667,78.5 3.5,78.5C 3.5,76.1667 3.5,73.8333 3.5,71.5 Z"/></g>
<g><path style="opacity:1" fill="#002b72" d="M 3.5,80.5 C 56.1667,80.5 108.833,80.5 161.5,80.5C 161.5,93.8333 161.5,107.167 161.5,120.5C 108.833,120.5 56.1667,120.5 3.5,120.5C 3.5,107.167 3.5,93.8333 3.5,80.5 Z"/></g>
<g><path style="opacity:1" fill="#000000" d="M 13.5,86.5 C 20.1923,89.7598 27.1923,92.2598 34.5,94C 63.8056,95.5996 93.1389,95.933 122.5,95C 132.66,94.2532 142.16,91.4199 151,86.5C 151.418,88.788 150.751,90.788 149,92.5C 141.673,101.51 132.506,107.677 121.5,111C 95.5,111.667 69.5,111.667 43.5,111C 29.7779,107.316 19.7779,99.1495 13.5,86.5 Z"/></g>
<g><path style="opacity:1" fill="#fefffe" d="M 144.5,91.5 C 145.239,91.369 145.906,91.5357 146.5,92C 139.772,100.693 131.105,106.36 120.5,109C 95.1667,109.667 69.8333,109.667 44.5,109C 34.5992,106.382 26.2659,101.215 19.5,93.5C 24.3496,92.0563 27.5163,93.7229 29,98.5C 30.3189,100.487 32.1523,101.654 34.5,102C 66.5,102.667 98.5,102.667 130.5,102C 134.376,100.957 136.709,98.457 137.5,94.5C 140.016,93.6701 142.35,92.6701 144.5,91.5 Z"/></g>
<g><path style="opacity:1" fill="#fefffe" d="M 30.5,95.5 C 33.456,96.1371 36.456,96.6371 39.5,97C 68.1667,97.6667 96.8333,97.6667 125.5,97C 128.036,96.6608 130.536,96.1608 133,95.5C 134.364,97.6034 133.53,99.1034 130.5,100C 98.5,100.667 66.5,100.667 34.5,100C 32.249,99.2525 30.9156,97.7525 30.5,95.5 Z"/></g>
<g><path style="opacity:1" fill="#fea700" d="M 3.5,122.5 C 29.1688,122.333 54.8355,122.5 80.5,123C 63.3514,142.783 45.8514,162.283 28,181.5C 11.356,165.413 3.18937,145.746 3.5,122.5 Z"/></g>
<g><path style="opacity:1" fill="#fea700" d="M 83.5,123.5 C 109.328,122.502 135.328,122.169 161.5,122.5C 161.816,145.727 153.649,165.393 137,181.5C 119.618,161.624 101.785,142.29 83.5,123.5 Z"/></g>
<g><path style="opacity:1" fill="#002b72" d="M 81.5,125.5 C 84.3943,126.882 86.8943,128.882 89,131.5C 104.5,148.667 120,165.833 135.5,183C 111.094,203.012 83.7608,208.012 53.5,198C 45.2681,194.301 37.7681,189.468 31,183.5C 31.0628,182.038 31.7295,180.705 33,179.5C 49.0037,161.331 65.1703,143.331 81.5,125.5 Z"/></g>
<g><path style="opacity:1" fill="#fefffe" d="M -0.5,132.5 C 6.70027,172.368 30.0336,197.035 69.5,206.5C 46.1667,206.5 22.8333,206.5 -0.5,206.5C -0.5,181.833 -0.5,157.167 -0.5,132.5 Z"/></g>
<g><path style="opacity:1" fill="#fefffe" d="M 165.5,134.5 C 165.5,158.5 165.5,182.5 165.5,206.5C 142.167,206.5 118.833,206.5 95.5,206.5C 108.516,203.743 120.516,198.576 131.5,191C 149.906,176.344 161.239,157.511 165.5,134.5 Z"/></g>
</svg>

<svg xmlns="http://www.w3.org/2000/svg" width="166" height="207" style="shape-rendering:geometricPrecision;text-rendering:geometricPrecision;image-rendering:optimizeQuality;fill-rule:evenodd;clip-rule:evenodd"><path style="opacity:1" d="M-.5-.5h166v135c-4.261 23.011-15.594 41.844-34 56.5-10.984 7.576-22.984 12.743-36 15.5h-26c-39.466-9.465-62.8-34.132-70-74V-.5z"/><path style="opacity:1" fill="#00612a" d="M3.5 3.5c14.045 2.42 21.378 10.754 22 25 16.11-.55 25.11 7.117 27 23 14.04-1.489 23.374 4.344 28 17.5-25.664.5-51.331.667-77 .5v-66z"/><path style="opacity:1" fill="#fefffe" d="M13.5 4.5a3178.257 3178.257 0 0 1 138-.5c-8.941 4.787-13.608 12.287-14 22.5-15.434.1-24.434 7.767-27 23-14.297-.843-23.464 5.49-27.5 19C79.627 58.459 72.794 52.292 62.5 50a32.437 32.437 0 0 0-8-.5c-2.566-15.233-11.566-22.9-27-23-.162-10.35-4.829-17.683-14-22z"/><path style="opacity:1" fill="#00612a" d="M157.5 3.5h4v66c-25.675.333-51.342 0-77-1 4.926-12.8 14.26-18.468 28-17 1.877-15.869 10.877-23.535 27-23 .395-12.483 6.395-20.817 18-25z"/><path style="opacity:1" fill="#fea700" d="M3.5 71.5h158v7H3.5v-7z"/><path style="opacity:1" fill="#002b72" d="M3.5 80.5h158v40H3.5v-40z"/><path style="opacity:1" d="M13.5 86.5a101.494 101.494 0 0 0 21 7.5 1019.66 1019.66 0 0 0 88 1c10.16-.747 19.66-3.58 28.5-8.5.418 2.288-.249 4.288-2 6-7.327 9.01-16.494 15.177-27.5 18.5-26 .667-52 .667-78 0-13.722-3.684-23.722-11.85-30-24.5z"/><path style="opacity:1" fill="#fefffe" d="M144.5 91.5a2.427 2.427 0 0 1 2 .5c-6.728 8.693-15.395 14.36-26 17-25.333.667-50.667.667-76 0-9.9-2.618-18.234-7.785-25-15.5 4.85-1.444 8.016.223 9.5 5 1.319 1.987 3.152 3.154 5.5 3.5 32 .667 64 .667 96 0 3.876-1.043 6.209-3.543 7-7.5 2.516-.83 4.85-1.83 7-3z"/><path style="opacity:1" fill="#fefffe" d="M30.5 95.5a97.442 97.442 0 0 0 9 1.5c28.667.667 57.333.667 86 0 2.536-.34 5.036-.84 7.5-1.5 1.364 2.103.53 3.603-2.5 4.5-32 .667-64 .667-96 0-2.251-.748-3.584-2.248-4-4.5z"/><path style="opacity:1" fill="#fea700" d="M3.5 122.5c25.669-.167 51.336 0 77 .5A2285.733 2285.733 0 0 1 28 181.5c-16.644-16.087-24.81-35.754-24.5-59zM83.5 123.5a1521.522 1521.522 0 0 1 78-1c.316 23.227-7.851 42.893-24.5 59a1482.62 1482.62 0 0 0-53.5-58z"/><path style="opacity:1" fill="#002b72" d="M81.5 125.5c2.894 1.382 5.394 3.382 7.5 6l46.5 51.5c-24.406 20.012-51.74 25.012-82 15A88.957 88.957 0 0 1 31 183.5c.063-1.462.73-2.795 2-4a3749.28 3749.28 0 0 1 48.5-54z"/><path style="opacity:1" fill="#fefffe" d="M-.5 132.5c7.2 39.868 30.534 64.535 70 74h-70v-74zM165.5 134.5v72h-70c13.016-2.757 25.016-7.924 36-15.5 18.406-14.656 29.739-33.489 34-56.5z"/></svg>
